StripePaymentSheet/StripePaymentSheet/Resources/StripePaymentSheet.xcassets/PaymentSheet/icon_chevron_right.imageset/chevronRight.svg

<svg fill="none" height="12" viewBox="0 0 12 12" width="12" xmlns="http://www.w3.org/2000/svg"><path clip-rule="evenodd" d="m3.96987 1.80612c-.29316-.29316-.29316-.76847 0-1.061639.29317-.293164.76848-.293164 1.06164 0l4.7248 4.724799c.29289.29289.29289.76777 0 1.06066l-4.7248 4.72476c-.29316.2932-.76847.2932-1.06164 0-.29316-.2931-.29316-.7684 0-1.0616l4.19349-4.19349z" fill="#000" fill-rule="evenodd"/></svg>

<svg width="12" height="12" viewBox="0 0 12 12" fill="none" xmlns="http://www.w3.org/2000/svg">
<path fill-rule="evenodd" clip-rule="evenodd" d="M3.96987 1.80612C3.67671 1.51296 3.67671 1.03765 3.96987 0.744481C4.26304 0.451317 4.73835 0.451317 5.03151 0.744481L9.75631 5.46928C10.0492 5.76217 10.0492 6.23705 9.75631 6.52994L5.03151 11.2547C4.73835 11.5479 4.26304 11.5479 3.96987 11.2547C3.67671 10.9616 3.67671 10.4863 3.96987 10.1931L8.16336 5.99961L3.96987 1.80612Z" fill="black"/>
</svg>
